_inc/systems/logos/auto-allgames.svg

<?xml version="1.0" encoding="utf-8"?>
<svg version="1.1" id="allgames" x="0px" y="0px" viewBox="0 0 200 40" xmlns="http://www.w3.org/2000/svg">
  <path d="M 47.596 29.375 L 41.596 29.375 L 49.486 10.625 L 58.306 10.625 L 59.626 29.375 L 53.596 29.375 L 53.476 26.405 L 48.766 26.405 L 47.596 29.375 Z M 52.726 16.385 L 50.626 21.635 L 53.026 21.635 L 53.026 16.385 L 52.726 16.385 Z M 73.005 29.375 L 61.605 29.375 L 64.905 10.625 L 70.605 10.625 L 68.145 24.575 L 73.845 24.575 L 73.005 29.375 Z M 85.784 29.375 L 74.384 29.375 L 77.684 10.625 L 83.384 10.625 L 80.924 24.575 L 86.624 24.575 L 85.784 29.375 Z M 103.363 23.855 L 103.513 23.045 L 102.073 23.045 L 102.883 18.455 L 109.753 18.455 L 107.983 28.475 C 105.543 29.375 103.093 29.825 100.633 29.825 C 98.173 29.825 96.398 29.335 95.308 28.355 C 94.218 27.375 93.673 25.865 93.673 23.825 C 93.673 22.965 93.813 21.695 94.093 20.015 C 94.693 16.535 95.753 14.025 97.273 12.485 C 98.793 10.945 101.313 10.175 104.833 10.175 C 105.573 10.175 106.518 10.255 107.668 10.415 C 108.818 10.575 109.663 10.755 110.203 10.955 L 108.553 15.545 C 107.053 15.265 105.678 15.125 104.428 15.125 C 103.178 15.125 102.283 15.225 101.743 15.425 C 101.203 15.625 100.883 16.025 100.783 16.625 L 99.313 25.115 L 101.203 25.115 C 101.883 25.115 102.388 25.04 102.718 24.89 C 103.048 24.74 103.263 24.395 103.363 23.855 Z M 115.002 29.375 L 109.002 29.375 L 116.892 10.625 L 125.712 10.625 L 127.032 29.375 L 121.002 29.375 L 120.882 26.405 L 116.172 26.405 L 115.002 29.375 Z M 120.132 16.385 L 118.032 21.635 L 120.432 21.635 L 120.432 16.385 L 120.132 16.385 Z M 134.412 29.375 L 128.472 29.375 L 132.852 10.625 L 140.292 10.625 L 140.832 20.165 L 141.042 20.165 L 144.942 10.625 L 152.382 10.625 L 150.162 29.375 L 144.192 29.375 L 145.452 20.285 L 145.242 20.285 L 141.492 29.375 L 137.142 29.375 L 136.512 20.285 L 136.362 20.285 L 134.412 29.375 Z M 165.97 22.295 L 160.27 22.295 L 159.88 24.575 L 166.87 24.575 L 166.03 29.375 L 153.34 29.375 L 156.64 10.625 L 169.18 10.625 L 167.62 15.425 L 161.47 15.425 L 161.05 17.945 L 166.75 17.945 L 165.97 22.295 Z M 168.7 29.045 L 170.38 24.095 C 172.06 24.555 173.6 24.785 175 24.785 C 176.4 24.785 177.53 24.725 178.39 24.605 L 178.63 23.105 L 176.14 22.865 C 174.24 22.685 172.895 22.255 172.105 21.575 C 171.315 20.895 170.92 19.935 170.92 18.695 C 170.92 18.155 170.98 17.555 171.1 16.895 C 171.56 14.335 172.395 12.575 173.605 11.615 C 174.815 10.655 176.69 10.175 179.23 10.175 C 181.77 10.175 184.01 10.425 185.95 10.925 L 184.39 15.725 C 182.65 15.425 181.25 15.275 180.19 15.275 C 179.13 15.275 178.23 15.325 177.49 15.425 L 177.25 16.895 L 179.26 17.105 C 181.3 17.325 182.75 17.81 183.61 18.56 C 184.47 19.31 184.9 20.315 184.9 21.575 C 184.9 22.855 184.62 24.175 184.06 25.535 C 183.78 26.235 183.475 26.82 183.145 27.29 C 182.815 27.76 182.395 28.16 181.885 28.49 C 181.375 28.82 180.91 29.07 180.49 29.24 C 180.07 29.41 179.54 29.535 178.9 29.615 C 177.96 29.755 176.81 29.825 175.45 29.825 C 172.97 29.825 170.72 29.565 168.7 29.045 Z" style="white-space: pre; fill: rgb(255, 255, 255);"/>
  <path d="M 34.999 11.75 L 34.999 14 C 34.999 16.071 30.298 17.75 24.5 17.75 C 18.701 17.75 14 16.071 14 14 L 14 11.75 C 14 9.678 18.701 8 24.5 8 C 30.298 8 34.999 9.678 34.999 11.75 Z M 32.43 18.064 C 33.405 17.717 34.301 17.272 34.999 16.723 L 34.999 21.5 C 34.999 23.572 30.298 25.249 24.5 25.249 C 18.701 25.249 14 23.572 14 21.5 L 14 16.723 C 14.698 17.276 15.593 17.717 16.569 18.064 C 18.673 18.814 21.476 19.249 24.5 19.249 C 27.523 19.249 30.326 18.814 32.43 18.064 Z M 14 24.223 C 14.698 24.776 15.593 25.217 16.569 25.563 C 18.673 26.314 21.476 26.75 24.5 26.75 C 27.523 26.75 30.326 26.314 32.43 25.563 C 33.405 25.217 34.301 24.771 34.999 24.223 L 34.999 28.25 C 34.999 30.322 30.298 32 24.5 32 C 18.701 32 14 30.322 14 28.25 L 14 24.223 Z" style="fill: rgb(255, 255, 255); transform-box: fill-box; transform-origin: 50% 50%;"/>
</svg>

<svg xmlns="http://www.w3.org/2000/svg" viewBox="0 0 200 40"><path d="M47.6 29.38h-6l7.89-18.75h8.82l1.32 18.74H53.6l-.12-2.96h-4.71zm5.13-13-2.1 5.26h2.4v-5.25zm20.27 13H61.6l3.3-18.75h5.7l-2.45 13.94h5.7zm12.78 0h-11.4l3.3-18.75h5.7l-2.46 13.94h5.7zm17.58-5.52.15-.81h-1.44l.81-4.6h6.87l-1.77 10.03a21 21 0 0 1-7.35 1.34q-3.69 0-5.32-1.46-1.64-1.48-1.64-4.53 0-1.29.42-3.81.9-5.23 3.18-7.53 2.28-2.31 7.56-2.31 1.11 0 2.84.23 1.73.25 2.53.54l-1.65 4.6q-2.25-.43-4.12-.43a9 9 0 0 0-2.69.3q-.81.3-.96 1.2l-1.47 8.5h1.9q1.01 0 1.5-.23.5-.23.65-1.04M115 29.38h-6l7.9-18.75h8.81l1.32 18.74H121l-.12-2.96h-4.7zm5.13-13-2.1 5.26h2.4v-5.25zm14.28 13h-5.94l4.38-18.75h7.44l.54 9.53h.21l3.9-9.53h7.44l-2.22 18.74h-5.97l1.26-9.09h-.2l-3.76 9.1h-4.35l-.63-9.1h-.15zm31.56-7.08h-5.7l-.39 2.27h6.99l-.84 4.8h-12.69l3.3-18.74h12.54l-1.56 4.8h-6.15l-.42 2.52h5.7zm2.73 6.75 1.68-4.96q2.52.7 4.62.7t3.39-.18l.24-1.5-2.49-.25q-2.85-.27-4.03-1.28a3.6 3.6 0 0 1-1.19-2.88q0-.81.18-1.8.7-3.84 2.5-5.28 1.82-1.44 5.63-1.44t6.72.75l-1.56 4.8q-2.61-.46-4.2-.46t-2.7.16l-.24 1.47 2.01.2q3.06.33 4.35 1.46a3.8 3.8 0 0 1 1.29 3.02q0 1.92-.84 3.96-.43 1.05-.91 1.75-.5.7-1.27 1.2-.75.5-1.39.75-.63.26-1.59.38-1.41.2-3.45.2-3.72 0-6.75-.77" style="white-space:pre;fill:#fff"/><path d="M35 11.75V14c0 2.07-4.7 3.75-10.5 3.75S14 16.07 14 14v-2.25C14 9.68 18.7 8 24.5 8S35 9.68 35 11.75m-2.57 6.31A9 9 0 0 0 35 16.72v4.78c0 2.07-4.7 3.75-10.5 3.75S14 23.57 14 21.5v-4.78c.7.56 1.6 1 2.57 1.34 2.1.75 4.9 1.19 7.93 1.19s5.83-.44 7.93-1.19M14 24.22c.7.56 1.6 1 2.57 1.34 2.1.75 4.9 1.19 7.93 1.19s5.83-.44 7.93-1.19A9 9 0 0 0 35 24.22v4.03C35 30.32 30.3 32 24.5 32S14 30.32 14 28.25z" style="fill:#fff;transform-box:fill-box;transform-origin:50% 50%"/></svg>
